media/nullassignment.svg

<svg width="360" height="58" xmlns="http://www.w3.org/2000/svg" xmlns:xlink="http://www.w3.org/1999/xlink" overflow="hidden"><defs><clipPath id="clip0"><path d="M463 454 823 454 823 512 463 512Z" fill-rule="evenodd" clip-rule="evenodd"/></clipPath><linearGradient x1="533.727" y1="466.109" x2="533.727" y2="491.709" gradientUnits="userSpaceOnUse" spreadMethod="reflect" id="fill1"><stop offset="0" stop-color="#FFFFFF"/><stop offset="1" stop-color="#FFFFFF"/></linearGradient><linearGradient x1="751.758" y1="466.109" x2="751.758" y2="491.709" gradientUnits="userSpaceOnUse" spreadMethod="reflect" id="fill2"><stop offset="0" stop-color="#FFFFFF"/><stop offset="1" stop-color="#FFFFFF"/></linearGradient></defs><g clip-path="url(#clip0)" transform="translate(-463 -454)"><rect x="464" y="462" width="140" height="34" fill="#D73B01"/><path d="M542.52 477.778C541.727 477.778 541.054 478.062 540.5 478.629 539.946 479.197 539.605 479.938 539.475 480.854L545.145 480.854C545.138 479.884 544.904 479.128 544.443 478.588 543.981 478.048 543.34 477.778 542.52 477.778ZM525.361 477.778C524.383 477.778 523.597 478.118 523.003 478.798 522.408 479.479 522.11 480.331 522.11 481.357L522.11 482.823C522.11 483.691 522.392 484.428 522.956 485.033 523.52 485.638 524.236 485.94 525.105 485.94 526.123 485.94 526.921 485.551 527.499 484.771 528.076 483.992 528.365 482.909 528.365 481.521 528.365 480.352 528.095 479.436 527.555 478.773 527.015 478.11 526.284 477.778 525.361 477.778ZM533.429 476.609 535.11 476.609 535.11 486.668C535.11 488.391 534.763 489.719 534.07 490.652 533.376 491.585 532.383 492.052 531.091 492.052 530.612 492.052 530.148 491.942 529.696 491.723L529.696 490.155C530.202 490.462 530.681 490.616 531.132 490.616 532.663 490.616 533.429 489.392 533.429 486.945ZM554.166 476.363C555.089 476.363 555.902 476.534 556.607 476.876L556.607 478.599C555.827 478.052 554.993 477.778 554.105 477.778 553.031 477.778 552.151 478.163 551.464 478.932 550.777 479.701 550.434 480.711 550.434 481.962 550.434 483.192 550.757 484.163 551.403 484.874 552.049 485.585 552.915 485.94 554.002 485.94 554.918 485.94 555.779 485.636 556.586 485.028L556.586 486.627C555.779 487.113 554.822 487.355 553.715 487.355 552.218 487.355 551.01 486.868 550.09 485.894 549.171 484.92 548.711 483.657 548.711 482.105 548.711 480.376 549.207 478.986 550.198 477.937 551.189 476.888 552.512 476.363 554.166 476.363ZM542.551 476.363C543.925 476.363 544.988 476.807 545.74 477.696 546.492 478.585 546.868 479.819 546.868 481.398L546.868 482.28 539.454 482.28C539.482 483.449 539.796 484.351 540.398 484.987 540.999 485.622 541.826 485.94 542.879 485.94 544.062 485.94 545.148 485.551 546.14 484.771L546.14 486.35C545.217 487.02 543.997 487.355 542.479 487.355 540.996 487.355 539.83 486.879 538.982 485.925 538.135 484.971 537.711 483.63 537.711 481.9 537.711 480.266 538.174 478.935 539.1 477.906 540.027 476.878 541.177 476.363 542.551 476.363ZM510.704 473.718C509.159 473.718 507.905 474.275 506.941 475.389 505.977 476.503 505.495 477.966 505.495 479.778 505.495 481.589 505.965 483.047 506.905 484.151 507.845 485.255 509.07 485.807 510.581 485.807 512.194 485.807 513.466 485.281 514.396 484.228 515.325 483.175 515.79 481.702 515.79 479.808 515.79 477.867 515.339 476.367 514.437 475.307 513.534 474.247 512.29 473.718 510.704 473.718ZM561.654 473.502 561.654 476.609 564.299 476.609 564.299 478.045 561.654 478.045 561.654 483.961C561.654 484.665 561.773 485.168 562.013 485.469 562.252 485.769 562.648 485.92 563.202 485.92 563.626 485.92 563.992 485.804 564.299 485.571L564.299 487.007C563.903 487.225 563.38 487.335 562.73 487.335 560.892 487.335 559.972 486.309 559.972 484.259L559.972 478.045 558.168 478.045 558.168 476.609 559.972 476.609 559.972 474.046ZM510.827 472.159C512.857 472.159 514.493 472.843 515.734 474.21 516.974 475.577 517.595 477.365 517.595 479.573 517.595 481.972 516.959 483.869 515.688 485.264 514.416 486.658 512.714 487.355 510.581 487.355 508.496 487.355 506.826 486.668 505.572 485.294 504.318 483.92 503.69 482.133 503.69 479.932 503.69 477.566 504.33 475.68 505.608 474.271 506.886 472.863 508.626 472.159 510.827 472.159ZM534.29 471.759C534.598 471.759 534.859 471.863 535.075 472.072 535.29 472.28 535.398 472.542 535.398 472.856 535.398 473.157 535.29 473.413 535.075 473.625 534.859 473.837 534.598 473.943 534.29 473.943 533.989 473.943 533.733 473.841 533.521 473.636 533.309 473.431 533.203 473.171 533.203 472.856 533.203 472.542 533.309 472.28 533.521 472.072 533.733 471.863 533.989 471.759 534.29 471.759ZM520.429 471.564 522.11 471.564 522.11 478.455 522.151 478.455C522.979 477.06 524.189 476.363 525.781 476.363 527.128 476.363 528.182 476.833 528.945 477.773 529.707 478.713 530.088 479.973 530.088 481.552 530.088 483.308 529.661 484.715 528.806 485.771 527.952 486.827 526.783 487.355 525.299 487.355 523.912 487.355 522.862 486.767 522.151 485.592L522.11 485.592 522.11 487.109 520.429 487.109Z" fill="url(#fill1)" fill-rule="evenodd"/><text fill="#000000" fill-opacity="0" font-family="Arial,Arial_MSFontService,sans-serif" font-size="20.4873" x="503.69" y="489.491">Object</text><rect x="682" y="462" width="140" height="34" fill="#107C10"/><path d="M783.362 477.778C782.282 477.778 781.428 478.146 780.799 478.88 780.17 479.615 779.855 480.629 779.855 481.921 779.855 483.165 780.173 484.146 780.809 484.864 781.445 485.581 782.296 485.94 783.362 485.94 784.449 485.94 785.285 485.588 785.869 484.884 786.454 484.18 786.746 483.179 786.746 481.88 786.746 480.567 786.454 479.556 785.869 478.845 785.285 478.134 784.449 477.778 783.362 477.778ZM747.942 477.778C747.149 477.778 746.476 478.062 745.922 478.629 745.368 479.197 745.026 479.938 744.896 480.854L750.567 480.854C750.56 479.884 750.326 479.128 749.864 478.588 749.403 478.048 748.762 477.778 747.942 477.778ZM729.783 477.778C728.805 477.778 728.019 478.118 727.424 478.798 726.83 479.479 726.532 480.331 726.532 481.357L726.532 482.823C726.532 483.691 726.814 484.428 727.378 485.033 727.942 485.638 728.658 485.94 729.526 485.94 730.545 485.94 731.343 485.551 731.921 484.771 732.498 483.992 732.787 482.909 732.787 481.521 732.787 480.352 732.517 479.436 731.977 478.773 731.437 478.11 730.706 477.778 729.783 477.778ZM773.851 476.609 775.532 476.609 775.532 487.109 773.851 487.109ZM713.569 476.609 715.527 476.609 717.558 480.198C717.708 480.465 717.855 480.738 717.998 481.018L718.039 481.018 720.664 476.609 722.52 476.609 718.993 481.921 722.459 487.109 720.5 487.109 718.439 483.705C718.31 483.493 718.156 483.226 717.978 482.905L717.937 482.905C717.903 482.967 717.742 483.233 717.455 483.705L715.353 487.109 713.415 487.109 716.994 481.962ZM741.321 476.425C741.759 476.425 742.094 476.473 742.326 476.568L742.326 478.311C742.032 478.086 741.608 477.973 741.055 477.973 740.337 477.973 739.737 478.311 739.255 478.988 738.773 479.665 738.532 480.588 738.532 481.757L738.532 487.109 736.851 487.109 736.851 476.609 738.532 476.609 738.532 478.773 738.573 478.773C738.812 478.035 739.178 477.459 739.67 477.045 740.163 476.631 740.713 476.425 741.321 476.425ZM796.018 476.363C797.167 476.363 798.045 476.734 798.654 477.476 799.262 478.217 799.566 479.289 799.566 480.69L799.566 487.109 797.885 487.109 797.885 481.121C797.885 478.892 797.071 477.778 795.444 477.778 794.603 477.778 793.908 478.094 793.358 478.727 792.807 479.359 792.532 480.157 792.532 481.121L792.532 487.109 790.851 487.109 790.851 476.609 792.532 476.609 792.532 478.352 792.573 478.352C793.366 477.026 794.515 476.363 796.018 476.363ZM783.485 476.363C785.051 476.363 786.273 476.845 787.151 477.809 788.029 478.773 788.469 480.109 788.469 481.818 788.469 483.493 787.995 484.835 787.049 485.843 786.102 486.851 784.832 487.355 783.239 487.355 781.687 487.355 780.448 486.865 779.522 485.884 778.596 484.903 778.133 483.602 778.133 481.982 778.133 480.219 778.615 478.841 779.579 477.85 780.542 476.859 781.845 476.363 783.485 476.363ZM768.255 476.363C769.164 476.363 769.977 476.52 770.695 476.835L770.695 478.537C769.923 478.031 769.034 477.778 768.029 477.778 767.715 477.778 767.431 477.814 767.178 477.886 766.925 477.958 766.708 478.058 766.527 478.188 766.346 478.318 766.206 478.474 766.107 478.655 766.008 478.836 765.958 479.036 765.958 479.255 765.958 479.528 766.008 479.757 766.107 479.942 766.206 480.126 766.351 480.29 766.542 480.434 766.734 480.578 766.966 480.707 767.24 480.824 767.513 480.94 767.824 481.066 768.173 481.203 768.638 481.381 769.055 481.564 769.424 481.752 769.793 481.94 770.107 482.151 770.367 482.387 770.627 482.623 770.827 482.895 770.967 483.203 771.107 483.51 771.177 483.876 771.177 484.3 771.177 484.819 771.063 485.27 770.834 485.653 770.605 486.036 770.299 486.354 769.916 486.607 769.533 486.86 769.092 487.048 768.593 487.171 768.094 487.294 767.571 487.355 767.024 487.355 765.944 487.355 765.008 487.147 764.215 486.73L764.215 484.925C765.131 485.602 766.139 485.94 767.24 485.94 768.716 485.94 769.455 485.448 769.455 484.464 769.455 484.183 769.391 483.946 769.265 483.751 769.138 483.556 768.967 483.384 768.752 483.233 768.537 483.083 768.284 482.948 767.993 482.828 767.703 482.709 767.39 482.584 767.055 482.454 766.59 482.269 766.182 482.083 765.83 481.895 765.478 481.707 765.184 481.495 764.948 481.259 764.712 481.024 764.534 480.755 764.415 480.454 764.295 480.154 764.235 479.802 764.235 479.398 764.235 478.906 764.348 478.47 764.574 478.091 764.799 477.712 765.1 477.394 765.476 477.137 765.852 476.881 766.281 476.688 766.763 476.558 767.245 476.428 767.742 476.363 768.255 476.363ZM759.255 476.363C760.164 476.363 760.977 476.52 761.695 476.835L761.695 478.537C760.923 478.031 760.034 477.778 759.029 477.778 758.715 477.778 758.431 477.814 758.178 477.886 757.925 477.958 757.708 478.058 757.527 478.188 757.346 478.318 757.206 478.474 757.107 478.655 757.008 478.836 756.958 479.036 756.958 479.255 756.958 479.528 757.008 479.757 757.107 479.942 757.206 480.126 757.351 480.29 757.542 480.434 757.734 480.578 757.966 480.707 758.24 480.824 758.513 480.94 758.824 481.066 759.173 481.203 759.638 481.381 760.055 481.564 760.424 481.752 760.793 481.94 761.107 482.151 761.367 482.387 761.627 482.623 761.827 482.895 761.967 483.203 762.107 483.51 762.177 483.876 762.177 484.3 762.177 484.819 762.063 485.27 761.834 485.653 761.605 486.036 761.299 486.354 760.916 486.607 760.533 486.86 760.092 487.048 759.593 487.171 759.094 487.294 758.571 487.355 758.024 487.355 756.944 487.355 756.008 487.147 755.215 486.73L755.215 484.925C756.131 485.602 757.139 485.94 758.24 485.94 759.716 485.94 760.455 485.448 760.455 484.464 760.455 484.183 760.391 483.946 760.265 483.751 760.138 483.556 759.967 483.384 759.752 483.233 759.537 483.083 759.284 482.948 758.993 482.828 758.703 482.709 758.39 482.584 758.055 482.454 757.59 482.269 757.182 482.083 756.83 481.895 756.478 481.707 756.184 481.495 755.948 481.259 755.712 481.024 755.534 480.755 755.415 480.454 755.295 480.154 755.235 479.802 755.235 479.398 755.235 478.906 755.348 478.47 755.574 478.091 755.799 477.712 756.1 477.394 756.476 477.137 756.852 476.881 757.281 476.688 757.763 476.558 758.245 476.428 758.742 476.363 759.255 476.363ZM747.973 476.363C749.347 476.363 750.41 476.807 751.162 477.696 751.914 478.585 752.289 479.819 752.289 481.398L752.289 482.28 744.876 482.28C744.903 483.449 745.218 484.351 745.819 484.987 746.421 485.622 747.248 485.94 748.301 485.94 749.483 485.94 750.57 485.551 751.561 484.771L751.561 486.35C750.639 487.02 749.418 487.355 747.901 487.355 746.417 487.355 745.252 486.879 744.404 485.925 743.557 484.971 743.133 483.63 743.133 481.9 743.133 480.266 743.596 478.935 744.522 477.906 745.448 476.878 746.599 476.363 747.973 476.363ZM730.203 476.363C731.557 476.363 732.613 476.833 733.372 477.773 734.13 478.713 734.51 479.973 734.51 481.552 734.51 483.308 734.082 484.715 733.228 485.771 732.373 486.827 731.205 487.355 729.721 487.355 728.361 487.355 727.311 486.767 726.573 485.592L726.532 485.592 726.532 491.939 724.851 491.939 724.851 476.609 726.532 476.609 726.532 478.455 726.573 478.455C727.4 477.06 728.61 476.363 730.203 476.363ZM704.076 472.405 711.541 472.405 711.541 473.964 705.799 473.964 705.799 478.855 711.11 478.855 711.11 480.403 705.799 480.403 705.799 485.551 711.869 485.551 711.869 487.109 704.076 487.109ZM774.712 471.759C775.019 471.759 775.281 471.863 775.496 472.072 775.712 472.28 775.819 472.542 775.819 472.856 775.819 473.157 775.712 473.413 775.496 473.625 775.281 473.837 775.019 473.943 774.712 473.943 774.411 473.943 774.155 473.841 773.943 473.636 773.731 473.431 773.625 473.171 773.625 472.856 773.625 472.542 773.731 472.28 773.943 472.072 774.155 471.863 774.411 471.759 774.712 471.759Z" fill="url(#fill2)" fill-rule="evenodd"/><text fill="#000000" fill-opacity="0" font-family="Arial,Arial_MSFontService,sans-serif" font-size="20.1797" x="704.076" y="489.416">Expression</text><text fill="#1C6982" font-family="Segoe UI,Segoe UI_MSFontService,sans-serif" font-weight="700" font-size="27" transform="translate(621.659 489)">??=</text></g></svg>

<svg xmlns="http://www.w3.org/2000/svg" overflow="hidden" viewBox="0 0 360 58">
  <defs/>
  <defs>
    <linearGradient id="b" x1="533.7" x2="533.7" y1="466.1" y2="491.7" gradientUnits="userSpaceOnUse" spreadMethod="reflect">
      <stop offset="0" stop-color="#FFF"/>
      <stop offset="1" stop-color="#FFF"/>
    </linearGradient>
    <linearGradient id="c" x1="751.8" x2="751.8" y1="466.1" y2="491.7" gradientUnits="userSpaceOnUse" spreadMethod="reflect">
      <stop offset="0" stop-color="#FFF"/>
      <stop offset="1" stop-color="#FFF"/>
    </linearGradient>
    <clipPath id="a">
      <path fill-rule="evenodd" d="M463 454h360v58H463z" clip-rule="evenodd"/>
    </clipPath>
  </defs>
  <g clip-path="url(#a)" transform="translate(-463 -454)">
    <path fill="#D73B01" d="M464 462h140v34H464z"/>
    <path fill="url(#b)" fill-rule="evenodd" d="M542.5 477.8c-.8 0-1.4.3-2 .8-.6.6-.9 1.3-1 2.3h5.6c0-1-.2-1.8-.7-2.3-.4-.6-1-.8-1.9-.8zm-17.1 0a3 3 0 00-2.4 1c-.6.7-.9 1.5-.9 2.6v1.4c0 .9.3 1.6.9 2.2.5.6 1.2 1 2.1 1 1 0 1.8-.4 2.4-1.2.6-.8.9-1.9.9-3.3 0-1.1-.3-2-.8-2.7-.6-.7-1.3-1-2.2-1zm8-1.2h1.7v10c0 1.8-.3 3.1-1 4-.7 1-1.7 1.5-3 1.5-.5 0-1-.2-1.4-.4v-1.5c.5.3 1 .4 1.4.4 1.6 0 2.3-1.2 2.3-3.7zm20.8-.2c.9 0 1.7.1 2.4.5v1.7c-.8-.5-1.6-.8-2.5-.8-1 0-2 .4-2.6 1.1-.7.8-1 1.8-1 3 0 1.3.3 2.3.9 3 .6.7 1.5 1 2.6 1 1 0 1.8-.3 2.6-.9v1.6c-.8.5-1.8.8-2.9.8-1.5 0-2.7-.5-3.6-1.5-1-1-1.4-2.2-1.4-3.8 0-1.7.5-3.1 1.5-4.2 1-1 2.3-1.5 4-1.5zm-11.6 0a4 4 0 013.1 1.3c.8.9 1.2 2.1 1.2 3.7v.9h-7.4c0 1.1.3 2 .9 2.7.6.6 1.4 1 2.5 1 1.2 0 2.2-.4 3.2-1.2v1.6a6 6 0 01-3.6 1c-1.5 0-2.7-.5-3.5-1.5-.9-1-1.3-2.3-1.3-4 0-1.6.5-3 1.4-4 1-1 2-1.5 3.5-1.5zm-31.9-2.7c-1.5 0-2.8.6-3.8 1.7a6.5 6.5 0 00-1.4 4.4c0 1.8.5 3.2 1.4 4.4 1 1 2.2 1.6 3.7 1.6 1.6 0 2.9-.5 3.8-1.6 1-1 1.4-2.5 1.4-4.4 0-2-.5-3.4-1.4-4.5-.9-1-2.1-1.6-3.7-1.6zm51-.2v3.1h2.6v1.4h-2.6v6c0 .7 0 1.2.3 1.5.3.3.6.4 1.2.4.4 0 .8-.1 1.1-.3v1.4c-.4.2-1 .3-1.6.3-1.8 0-2.7-1-2.7-3V478h-1.8v-1.4h1.8V474zm-50.9-1.3c2 0 3.7.6 5 2a7.7 7.7 0 011.8 5.4c0 2.4-.6 4.3-2 5.7-1.2 1.4-2.9 2-5 2s-3.8-.6-5-2a7.6 7.6 0 01-2-5.4c0-2.3.7-4.2 2-5.6 1.3-1.4 3-2.1 5.2-2.1zm23.5-.4a1 1 0 011.1 1c0 .4-.1.6-.3.8a1 1 0 01-.8.3 1 1 0 01-1.1-1c0-.4.1-.6.3-.8.2-.2.5-.3.8-.3zm-13.9-.2h1.7v6.9a4 4 0 013.7-2.1c1.3 0 2.4.4 3.1 1.4.8 1 1.2 2.2 1.2 3.8 0 1.7-.4 3.1-1.3 4.2-.8 1-2 1.6-3.5 1.6-1.4 0-2.4-.6-3.1-1.8v1.5h-1.8z"/>
    <text x="503.7" y="489.5" fill-opacity="0" font-family="Arial,Arial_MSFontService,sans-serif" font-size="20.5">
      Object
    </text>
    <path fill="#107C10" d="M682 462h140v34H682z"/>
    <path fill="url(#c)" fill-rule="evenodd" d="M783.4 477.8c-1.1 0-2 .3-2.6 1-.6.8-1 1.8-1 3.1s.4 2.2 1 3c.6.7 1.5 1 2.6 1 1 0 1.9-.3 2.5-1 .6-.7.8-1.7.8-3s-.2-2.3-.8-3a3 3 0 00-2.5-1.1zm-35.5 0c-.8 0-1.4.3-2 .8-.5.6-.9 1.3-1 2.3h5.7c0-1-.3-1.8-.7-2.3-.5-.6-1.1-.8-2-.8zm-18.1 0a3 3 0 00-2.4 1c-.6.7-.9 1.5-.9 2.6v1.4c0 .9.3 1.6.9 2.2.5.6 1.3 1 2.1 1 1 0 1.8-.4 2.4-1.2.6-.8.9-1.9.9-3.3 0-1.1-.3-2-.8-2.7-.6-.7-1.3-1-2.2-1zm44-1.2h1.7v10.5H774zm-60.2 0h2l2 3.6.4.8 2.7-4.4h1.8L719 482l3.5 5.2h-2l-2-3.4-.5-.8-.5.8-2.1 3.4h-2l3.6-5.1zm27.7-.2c.5 0 .8 0 1 .2v1.7a2 2 0 00-1.2-.3c-.8 0-1.4.3-1.8 1-.5.7-.8 1.6-.8 2.8v5.3H737v-10.5h1.6v2.2c.3-.8.7-1.3 1.2-1.8.5-.4 1-.6 1.6-.6zm54.7 0c1.2 0 2 .3 2.7 1a5 5 0 01.9 3.3v6.4h-1.7v-6c0-2.2-.8-3.3-2.5-3.3-.8 0-1.5.3-2 1-.6.6-.9 1.4-.9 2.3v6H791v-10.5h1.6v1.8c.9-1.4 2-2 3.5-2zm-12.5 0c1.6 0 2.8.4 3.7 1.4.8 1 1.3 2.3 1.3 4 0 1.7-.5 3-1.5 4a5 5 0 01-3.8 1.6c-1.5 0-2.8-.5-3.7-1.5-.9-1-1.4-2.3-1.4-4 0-1.7.5-3 1.5-4s2.2-1.5 3.9-1.5zm-15.2 0c.9 0 1.7.1 2.4.4v1.7a4.8 4.8 0 00-3.5-.6 2 2 0 00-.7.3l-.4.5-.1.6.1.6.4.5.7.4a36.8 36.8 0 002.2 1c.4.1.7.4 1 .6l.6.8.2 1.1c0 .5-.1 1-.4 1.4a3 3 0 01-.9 1l-1.3.5-1.6.2c-1 0-2-.3-2.8-.7V485c1 .7 2 1 3 1 1.5 0 2.3-.5 2.3-1.4l-.2-.7a2 2 0 00-.5-.6 52.6 52.6 0 00-3-1.3l-.9-.6-.5-.8-.2-1.1c0-.5.1-1 .4-1.3.2-.4.5-.7.9-1l1.3-.5c.4-.2 1-.2 1.5-.2zm-9 0c.9 0 1.7.1 2.4.4v1.7a4.8 4.8 0 00-3.5-.6 2 2 0 00-.7.3l-.4.5-.1.6.1.6.4.5.7.4a36.8 36.8 0 002.2 1c.4.1.7.4 1 .6l.6.8.2 1.1c0 .5-.1 1-.4 1.4a3 3 0 01-.9 1l-1.3.5-1.6.2c-1 0-2-.3-2.8-.7V485c1 .7 2 1 3 1 1.5 0 2.3-.5 2.3-1.4l-.2-.7a2 2 0 00-.5-.6 52.6 52.6 0 00-3-1.3l-.9-.6-.5-.8-.2-1.1c0-.5.1-1 .4-1.3.2-.4.5-.7.9-1l1.3-.5c.4-.2 1-.2 1.5-.2zm-11.3 0a4 4 0 013.2 1.3c.7.9 1 2.1 1 3.7v.9H745c0 1.1.3 2 1 2.7.5.6 1.3 1 2.4 1 1.2 0 2.3-.4 3.3-1.2v1.6a6 6 0 01-3.7 1c-1.5 0-2.6-.5-3.5-1.5-.8-1-1.3-2.3-1.3-4 0-1.6.5-3 1.4-4 1-1 2.1-1.5 3.5-1.5zm-17.8 0c1.4 0 2.4.4 3.2 1.4.7 1 1.1 2.2 1.1 3.8 0 1.7-.4 3.1-1.3 4.2-.8 1-2 1.6-3.5 1.6-1.3 0-2.4-.6-3.1-1.8v6.3h-1.7v-15.3h1.6v1.9a4 4 0 013.7-2.1zm-26.1-4h7.4v1.6h-5.7v4.9h5.3v1.5h-5.3v5.2h6v1.5h-7.7zm70.6-.6a1 1 0 011.1 1c0 .4 0 .6-.3.8a1 1 0 01-.8.3 1 1 0 01-1-1c0-.4 0-.6.2-.8.3-.2.5-.3.8-.3z"/>
    <text x="704.1" y="489.4" fill-opacity="0" font-family="Arial,Arial_MSFontService,sans-serif" font-size="20.2">
      Expression
    </text>
    <text fill="#1C6982" font-family="Segoe UI,Segoe UI_MSFontService,sans-serif" font-size="27" font-weight="700" transform="translate(621.7 489)">
      ??=
    </text>
  </g>
</svg>
